X: 529
T: Dayanılmaz Hasretin
C: Ömer Sami Güpgüp
O: Turkey
F: http://compmusic.upf.edu/node/140
N: segah--sarki--sofyan--dayanilmaz_hasretin--omer_sami_gupgup
N: makam= segah
N: form= sarki
N: usul= sofyan = 4/4
M: 4/4
L: 1/16
K: C _1/4B _1/4e ^f 
Q: 1/4=123
%%MIDI tuningsystem comma53
B2^A2 B2c2 d2e2 d4  | e2d2 e2f2 e2g2 f4  | \
w:  ARANAĞME  |   | 
g2f2 g2^a2 b2c'2 b4  | 
w:   | 
c'2c'2 b2a2 _7/8b2a2 g4  | g2g2 f2e2 d2e2 d4  | \
w:   |   | 
d2e2 =f2e2 d2c2 B4  | 
w:   | 
B2^A2 B2c2 d2e2 d4  | e2d2 e2f2 e2g2 f4  | \
w:  ARANAĞME  |   | 
g2f2 g2^a2 b2c'2 b4  | 
w:   | 
c'2c'2 b2a2 _7/8b2a2 g4  | g2g2 f2e2 d2e2 d4  | \
w:   |   | 
d2e2 =f2e2 d2c2 B4  | 
w:   | 
z4 B2^A2 B4 G4  | z2B4c2 d8  | d2e6 d2B4d2  | d16  | \
w:  Da ya nıl maz   |  has re tin   |  ö lüm den  *  be  |  ter    | 
d2g2 f2g2 e2f2 d2e2  | 
w:  SAZ  | 
d2c2 B2^A2 B8  | z4 B2^A2 B4 G4  | z2B4c2 d8  | \
w:   |  Da ya nıl maz   |  has re tin   | 
d2e6 d2B4d2  | d16  | d2g2 f2g2 e2f2 d2e2  | 
w:  ö lüm den  *  be  |  ter    |  SAZ  | 
d2e2 f2a2 g8  | g4 g4 f2g6  | f4 e2d2 e3d e3f  | \
w:   |  Sen siz  ka lan   |  gön lü mü  SAZ  | 
f2g2 a2g2 f4 f3/2e/f2  | 
w:  a vu ta ma dım  SAZ  | 
e2f2 g2f2 e4 e3/2d/e2  | d2c2 B2c2 d8  | \
w:  a vu ta ma dım  SAZ  |  a vu ta ma dım   | 
d2e2 f2a2 g8  | g4 g4 f2g6  | 
w:  SAZ  |  Sen siz  ka lan   | 
f4 e2d2 e3d e3f  | f2g2 a2g2 f4 f3/2e/f2  | \
w:  gön lü mü  SAZ  |  a vu ta ma dım  SAZ  | 
e2f2 g2f2 e4 e3/2d/e2  | 
w:  a vu ta ma dım  SAZ  | 
d2c2 B2^A2 B8  | g4 ^a4 b2c'2 b4  | z2g4^a2 b8  | \
w:  a vu ta ma dım   |  SAZ  |  En  bü yük   | 
b4 c'8 b2^a2  | z2g4f2 g6^a2  | 
w:  aşk lar  bi le   |  gün  ge lir  bi  | 
b16  | z2a4g2 f8  | f4 g8 e2d2  | z2d4B2 c6B2  | d16  | \
w:  ter    |  En  bü yük   |  aşk lar  bi le   |  gün  ge lir  bi  |  ter    | 
d2g2 f2g2 e2f2 d2e2  | 
w:  SAZ  | 
d2e2 f2a2 g8  | z4 g2g2 g2f2 g4  | f2e6 d4 z4  | \
w:   |  U nu tur *  sun   |  de miş tin   | 
f2g2 a2g2 f4 f3/2e/f2  | 
w:  u nu ta ma dım  SAZ  | 
e2f2 g2f2 e4 e3/2d/e2  | d2c2 B2c2 d8  | \
w:  u nu ta ma dım  SAZ  |  u nu ta ma dım   | 
d2e2 f2a2 g8  | z4 g2g2 g2f2 g4  | 
w:  SAZ  |  U nu tur *  sun   | 
f2e6 d4 z4  | f2g2 a2g2 f4 f3/2e/f2  | \
w:  de miş tin   |  u nu ta ma dım  SAZ  | 
e2f2 g2f2 e4 e3/2d/e2  | d2c2 B2^A2 B4 z4  | 
w:  u nu ta ma dım  SAZ  |  u nu ta ma dım   | 
d2c2 B2^A2 B8  | B2^A2 B2c2 d2e2 d4  | \
w:  SAZ  |  ARANAĞME  | 
e2d2 e2f2 e2g2 f4  | g2f2 g2^a2 b2c'2 b4  | 
w:   |   | 
c'2c'2 b2a2 _7/8b2a2 g4  | g2g2 f2e2 d2e2 d4  | \
w:   |   | 
d2e2 =f2e2 d2c2 B4  | 
w:   | 
B2^A2 B2c2 d2e2 d4  | e2d2 e2f2 e2g2 f4  | \
w:  ARANAĞME  |   | 
g2f2 g2^a2 b2c'2 b4  | 
w:   | 
c'2c'2 b2a2 _7/8b2a2 g4  | g2g2 f2e2 d2e2 d4  | \
w:   |   | 
d2e2 =f2e2 d2c2 B4  | 
w:   | 
z4 B2^A2 B4 G4  | z2B4c2 d8  | d4 e4 d4 c4  | d16  | \
w:  U nu tul mak   |  çok  a cı   |  has ret  çek mek   |  zor    | 
d2g2 f2g2 e2f2 d2e2  | 
w:  SAZ  | 
d2c2 B2^A2 B8  | z4 B2^A2 B4 G4  | z2B4c2 d8  | \
w:   |  U nu tul mak   |  çok  a cı   | 
d4 e4 d4 c4  | d16  | d2g2 f2g2 e2f2 d2e2  | 
w:  has ret  çek mek   |  zor    |  SAZ  | 
d2e2 f2a2 g8  | z2g4g2 g4 g4  | f2e4d2 e4 z4  | \
w:   |  Çek me yen ler   |  ne  bil *  sin   | 
f3g a2g2 f4 f3/2e/f2  | 
w:  bir  de  ba na  sor  SAZ  | 
e3f g2f2 e4 e3/2d/e2  | d3c B2c2 d8  | \
w:  bir  de  ba na  sor  SAZ  |  bir  de  ba na  sor   | 
d2e2 f2a2 g8  | z2g4g2 g4 g4  | 
w:  SAZ  |  Çek me yen ler   | 
f2e4d2 e4 z4  | f3g a2g2 f4 f3/2e/f2  | \
w:  ne  bil *  sin   |  bir  de  ba na  sor  SAZ  | 
e3f g2f2 e4 e3/2d/e2  | 
w:  bir  de  ba na  sor  SAZ  | 
d3c B2^A2 B8  | g4 ^a4 b2c'2 b4  | g4 b4 b2b6  | \
w:  bir  de  ba na  sor   |  SAZ  |  Bir  gün  ge lir   | 
z2b4c'2 b2^a2 a4  | z2g4f2 g2^a6  | 
w:  kül le nir   |  kal be  dü şen   | 
b16  | a4 g4 f2f6  | z2f4g2 e4 d4  | z2d4B2 c2B6  | d16  | \
w:  kor    |  Bir  gün  ge lir   |  kül le nir   |  kal be  dü şen   |  kor    | 
d2g2 f2g2 e2f2 d2e2  | 
w:  SAZ  | 
d2e2 f2a2 g8  | z4 g2g2 g2f2 g4  | f2e4d2 e4 z4  | \
w:   |  U nu tur *  sun   |  de miş *  tin   | 
f2g2 a2g2 f4 f3/2e/f2  | 
w:  u nu ta ma dım  SAZ  | 
e2f2 g2f2 e4 e3/2d/e2  | d2c2 B2c2 d8  | \
w:  u nu ta ma dım  SAZ  |  u nu ta ma dım   | 
d2e2 f2a2 g8  | z4 g2g2 g2f2 g4  | 
w:  SAZ  |  U nu tur *  sun   | 
f2e4d2 e4 z4  | f2g2 a2g2 f4 f3/2e/f2  | \
w:  de miş *  tin   |  u nu ta ma dım  SAZ  | 
e2f2 g2f2 e4 e3/2d/e2  | 
w:  u nu ta ma dım  SAZ  | 
d2c2 B2^A2 B8  | d2c2 B2^A2 B8  | |


